X: 38989
T: Swallow's Tail, The
R: reel
M: 4/4
K: Adorian
|:deed eA A2|edef g3a|gedB dG G2|BGBd g2 fg|
deed eA A2|eAfA g3z|a3g agef|gedB A3z:|
|:eaag aged|(3Bcd ef g3a|gedB dG G2|BGBd g2fg|
ea a2 ea a2|(3Bcd ef g3z|a3g agef|gedB A3z:|

